icons/category/icon_balance-transfer_xxl_white.svg

<?xml version="1.0" encoding="UTF-8"?>
<svg width="38px" height="46px" viewBox="0 0 38 46" version="1.1" xmlns="http://www.w3.org/2000/svg" xmlns:xlink="http://www.w3.org/1999/xlink">
    <!-- Generator: Sketch 50.2 (55047) - http://www.bohemiancoding.com/sketch -->
    <title>icon_balance-transfer_xxl_white</title>
    <desc>Created with Sketch.</desc>
    <defs></defs>
    <g id="Page-1" stroke="none" stroke-width="1" fill="none" fill-rule="evenodd">
        <g id="icon_balance-transfer_xxl_white" transform="translate(-5.000000, -2.000000)">
            <rect id="Rectangle-path" x="0" y="0" width="48" height="48"></rect>
            <g id="Group" opacity="0.3" transform="translate(6.000000, 9.000000)" fill="#FFFFFF" fill-rule="nonzero">
                <rect id="Rectangle-path" x="6.01" y="10" width="8" height="4"></rect>
                <rect id="Rectangle-path" x="0.01" y="0" width="36" height="4"></rect>
            </g>
            <path d="M39.5,2 L8.5,2 C6.56700338,2 5,3.56700338 5,5.5 L5,26.5 C5,28.4329966 6.56700338,30 8.5,30 L21.91,30 L22.51,29 L8.5,29 C7.12156478,28.9945191 6.00548092,27.8784352 6,26.5 L6,5.5 C6,4.83695878 6.2633921,4.20107399 6.73223305,3.73223305 C7.20107399,3.2633921 7.83695878,3 8.5,3 L39.5,3 C40.8807119,3 42,4.11928813 42,5.5 L42,26.5 C41.9945191,27.8784352 40.8784352,28.9945191 39.5,29 L25.83,29 L32.9,16.75 C33.0122542,16.595647 33.0268465,16.3908533 32.9376119,16.2221434 C32.8483773,16.0534335 32.6708829,15.950239 32.4801191,15.9561592 C32.2893554,15.9620794 32.1186014,16.0760814 32.04,16.25 L18,40.58 C18.0974798,39.3120021 17.5053717,38.0895854 16.45,37.38 C15.7217678,36.982556 14.8649226,36.8925513 14.07,37.13 C12.3460813,37.7015096 10.9117729,38.9206718 10.07,40.53 C8.42,43.41 8.62,46.53 10.52,47.63 C10.9695782,47.8879401 11.4819298,48.016028 12,48 C12.3210801,47.9997057 12.6406447,47.9559758 12.95,47.87 C14.6739187,47.2984904 16.1082271,46.0793282 16.95,44.47 L24,32.17 L31.1,44.47 C31.9417729,46.0793282 33.3760813,47.2984904 35.1,47.87 C35.3932094,47.9516276 35.6956763,47.9953173 36,48 C36.5011919,48.0068849 36.9950433,47.8791052 37.43,47.63 C39.33,46.52 39.53,43.41 37.88,40.53 C37.0382271,38.9206718 35.6039187,37.7015096 33.88,37.13 C33.0855103,36.8879677 32.2268563,36.9781624 31.5,37.38 C30.4635998,38.1015665 29.8916093,39.3218128 30,40.58 L24.57,31.17 L25.25,30 L39.5,30 C41.4329966,30 43,28.4329966 43,26.5 L43,5.5 C43,3.56700338 41.4329966,2 39.5,2 Z M16,44 C15.2875008,45.3600251 14.0927911,46.4049503 12.65,46.93 C12.1116598,47.0985659 11.5282373,47.0445453 11.03,46.78 C9.69,46 9.65,43.34 11,41 C11.7124992,39.6399749 12.9072089,38.5950497 14.35,38.07 C14.563235,38.0216349 14.7813567,37.9981449 15,38 C15.3278317,37.9951499 15.6514441,38.0743316 15.94,38.23 C17.31,39 17.35,41.67 16,44 Z M32,38.26 C32.3033131,38.0835849 32.649171,37.9936619 33,38 C33.2294774,38.0023179 33.4578209,38.0325398 33.68,38.09 C35.1081899,38.6164962 36.2908752,39.653127 37,41 C38.32,43.31 38.28,45.94 36.91,46.73 C36.4117627,46.9945453 35.8283402,47.0485659 35.29,46.88 C33.8780551,46.3546099 32.7075947,45.3300124 32,44 C30.65,41.67 30.69,39 32.06,38.24 L32,38.26 Z" id="Shape" fill="#FFFFFF" fill-rule="nonzero"></path>
        </g>
    </g>
</svg>

<svg xmlns="http://www.w3.org/2000/svg" viewBox="0 0 48 48"><defs><style>.cls-1{fill:none;}.cls-2{opacity:0.3;}.cls-3{fill:#fff;}</style></defs><title>icon_balance-transfer_xxl_white</title><g id="Layer_2" data-name="Layer 2"><rect class="cls-1" width="48" height="48"/><g class="cls-2"><rect class="cls-3" x="12.01" y="19" width="8" height="4"/><rect class="cls-3" x="6.01" y="9" width="36" height="4"/></g><path class="cls-3" d="M39.5,2H8.5A3.5,3.5,0,0,0,5,5.5v21A3.5,3.5,0,0,0,8.5,30H21.91l.6-1H8.5A2.51,2.51,0,0,1,6,26.5V5.5A2.5,2.5,0,0,1,8.5,3h31A2.5,2.5,0,0,1,42,5.5v21A2.51,2.51,0,0,1,39.5,29H25.83L32.9,16.75a.5.5,0,1,0-.86-.5L18,40.58a3.53,3.53,0,0,0-1.55-3.2,3.11,3.11,0,0,0-2.38-.25,7,7,0,0,0-4,3.4c-1.65,2.88-1.45,6,.45,7.1A2.8,2.8,0,0,0,12,48a3.56,3.56,0,0,0,.95-.13,7,7,0,0,0,4-3.4h0L24,32.17l7.1,12.3h0a7,7,0,0,0,4,3.4A3.56,3.56,0,0,0,36,48a2.8,2.8,0,0,0,1.43-.37c1.9-1.11,2.1-4.22.45-7.1a7,7,0,0,0-4-3.4,3.07,3.07,0,0,0-2.38.25A3.53,3.53,0,0,0,30,40.58l-5.43-9.41L25.25,30H39.5A3.5,3.5,0,0,0,43,26.5V5.5A3.5,3.5,0,0,0,39.5,2ZM16,44a6.16,6.16,0,0,1-3.35,2.93,2.11,2.11,0,0,1-1.62-.15C9.69,46,9.65,43.34,11,41a6.16,6.16,0,0,1,3.35-2.93A2.83,2.83,0,0,1,15,38a1.92,1.92,0,0,1,.94.23C17.31,39,17.35,41.67,16,44Zm16-5.74A1.92,1.92,0,0,1,33,38a2.83,2.83,0,0,1,.68.09A6.16,6.16,0,0,1,37,41c1.32,2.31,1.28,4.94-.09,5.73a2.11,2.11,0,0,1-1.62.15A6.16,6.16,0,0,1,32,44C30.65,41.67,30.69,39,32.06,38.24Z"/></g></svg>
